X:1
T: Bumper Allen's Delight
C:
R:Reel
Q: 232
K:D
M:4/4
L:1/8
dB|:AF F2 AF F2|AF F2 GE E2|AF A2 BA F2|ED EF Ee dB|
AF F2 AF F2|AF F2 GE E2|AF A2 BA F2|ED EF D2 A2|
de fg af df|ge fd ed BA|de fg af df|ed ef e2 dB|
de fg af df|ge fd ed BA|de fg a2 ag|1f2 fe df dB:|2f2 fe d2||
